svgs/light/vacuum.svg

<svg xmlns="http://www.w3.org/2000/svg" viewBox="0 0 640 512"><!-- Font Awesome Pro 6.0.0-alpha2 by @fontawesome - https://fontawesome.com License - https://fontawesome.com/license (Commercial License) --><path d="M352 400C343.125 400 336 407.125 336 416S343.125 432 352 432S368 424.875 368 416S360.875 400 352 400ZM640 112C639.875 50.125 589.875 0.125 528 0H302.125C249.125 0.125 203.375 37.375 192.5 89.25L124.875 416H80C35.875 416 0 451.875 0 496C0 504.875 7.125 512 16 512H208C216.875 512 224 504.875 224 496V432C224 423.125 216.875 416 208 416H157.625L223.75 95.75C231.625 58.75 264.25 32.125 302.125 32H528C572.125 32 608 67.875 608 112S572.125 192 528 192H494.875C458.5 151.25 406.5 128 352 128C334.375 128 320 142.375 320 160V325.875C282.875 339.125 256 374.375 256 416C256 469 299 512 352 512H480C515.375 512 544 483.375 544 448V320C544 286.25 535.125 253.125 518.125 224H528C589.875 223.875 639.875 173.875 640 112ZM192 448V480H34.75C41.5 460.875 59.625 448 80 448H192ZM352 480C316.625 480 288 451.375 288 416S316.625 352 352 352S416 380.625 416 416S387.375 480 352 480ZM512 448C512 465.625 497.625 480 480 480H423C448.625 452 455.125 411.5 439.75 376.75C424.375 342.125 389.875 319.875 352 320V160C440.25 160 512 231.75 512 320V448Z"/></svg>

<svg xmlns="http://www.w3.org/2000/svg" viewBox="0 0 640 512"><!--! Font Awesome Pro 6.3.0 by @fontawesome - https://fontawesome.com License - https://fontawesome.com/license (Commercial License) Copyright 2023 Fonticons, Inc. --><path d="M352 400c-8.875 0-16 7.125-16 16s7.125 16 16 16s16-7.125 16-16S360.9 400 352 400zM640 112c-.125-61.88-50.13-111.9-112-112H302.1C249.1 .125 203.4 37.38 192.5 89.25L124.9 416H80C35.88 416 0 451.9 0 496C0 504.9 7.125 512 16 512h192C216.9 512 224 504.9 224 496v-64C224 423.1 216.9 416 208 416H157.6L223.8 95.75C231.6 58.75 264.2 32.12 302.1 32H528C572.1 32 608 67.88 608 112S572.1 192 528 192h-33.13C458.5 151.2 406.5 128 352 128c-17.62 0-32 14.38-32 32v165.9C282.9 339.1 256 374.4 256 416c0 53 43 96 96 96h128c35.38 0 64-28.62 64-64v-128c0-33.75-8.875-66.88-25.88-96H528C589.9 223.9 639.9 173.9 640 112zM192 448v32H34.75C41.5 460.9 59.62 448 80 448H192zM352 480c-35.38 0-64-28.62-64-64s28.62-64 64-64s64 28.62 64 64S387.4 480 352 480zM512 448c0 17.62-14.38 32-32 32h-57c25.62-28 32.13-68.5 16.75-103.2C424.4 342.1 389.9 319.9 352 320V160c88.25 0 160 71.75 160 160V448z"/></svg>
